img/svg/headerarrow.svg

<svg width="8" height="5" viewBox="0 0 8 5" fill="none" xmlns="http://www.w3.org/2000/svg">
<path d="M1.70711 0.292893C1.31658 -0.0976311 0.683417 -0.0976311 0.292893 0.292893C-0.0976311 0.683417 -0.0976311 1.31658 0.292893 1.70711L1.70711 0.292893ZM4 4L3.29289 4.70711C3.68342 5.09763 4.31658 5.09763 4.70711 4.70711L4 4ZM7.70711 1.70711C8.09763 1.31658 8.09763 0.683417 7.70711 0.292893C7.31658 -0.0976311 6.68342 -0.0976311 6.29289 0.292893L7.70711 1.70711ZM0.292893 1.70711L3.29289 4.70711L4.70711 3.29289L1.70711 0.292893L0.292893 1.70711ZM4.70711 4.70711L7.70711 1.70711L6.29289 0.292893L3.29289 3.29289L4.70711 4.70711Z" fill="black"/>
</svg>

<svg xmlns="http://www.w3.org/2000/svg" width="8" height="5" fill="none" ><path d="M1.707.293A1 1 0 1 0 .293 1.707L1.707.293zM4 4l-.707.707a1 1 0 0 0 1.414 0L4 4zm3.707-2.293A1 1 0 1 0 6.293.293l1.414 1.414zm-7.414 0l3 3 1.414-1.414-3-3L.293 1.707zm4.414 3l3-3L6.293.293l-3 3 1.414 1.414z" fill="#000"/></svg>
